X: 23
T: The Whistle Waltz
C: Armand Aromin
H: 2//05
M: 3/4
L: 1/8
R: Waltz
K: Dmaj
e2 || a3 g fe | d4 A2 | B3 c d2 | A4 A2 |
B3 c d2 | B3 A G2 | F3 E FG | E4 e2 | 
a3 g fe | d4 A2 | B3 c d2 | A4 A2 |
B3 c d2 | c3 d ef | e4 c2 | d4 e2 :|
a3 b ag | f3 g a2 | d3 c de | f3 e d2 |
d3 e f2 | e3 d c2 | B6 | A4 e2 |
a3 b ag | f3 g a2 | d3 c de | f3 e d2
d3 e f2 | e3 d c2 | d4 c2 | d4 e2 :|]
